public/logobig.svg

<svg clip-rule="evenodd" fill-rule="evenodd" stroke-linejoin="round" stroke-miterlimit="2" viewBox="0 0 1584 398" xmlns="http://www.w3.org/2000/svg"><g fill="#1e1d1d"><path d="m0-54.045 17.372-5.892 3.945-.886c-.612.223-5.083 4.134-5.97 14.375l-4.019 43.11-3.355.808-7.601 1.704-15.619-23.839-3.364 27.862-3.209 1.105-10.797 2.476-20.536-37.932c-5.152-8.359-9.311-8.401-10.135-8.378l8.96-3.961 12.432-2.851 3.215-.81c-.454.187-2.631 3.247-1.727 7.187.289 1.261.905 2.862 2.084 4.748l12.392 20.387 3-23.086-.895-1.372c-4.494-6.934-6.875-7.549-7.305-7.616l18.161-6.072 3.699-.963c-.454.188-3.569 3.587-2.594 7.843.271 1.183.93 2.608 1.995 4.355l12.292 20.326 2.131-23.634c.178-2.115.053-3.745-.236-5.007-.904-3.94-3.667-4.053-4.316-3.987" fill-rule="nonzero" transform="matrix(4.166667 0 0 4.166667 277.6762868747 281.3288747506)"/><path d="m0 56.202c-6.382.273-12.829-.989-17.054-3.237l-4.084-18.184 1.268-2.331c4.728 8.377 13.231 14.243 19.453 13.976 4.685-.2 7.998-2.203 7.867-5.273-.211-4.928-7.968-6.539-14.99-9.881-5.372-2.603-10.47-6.351-10.781-13.621-.48-11.23 8.653-17.205 19.963-17.689 5.494-.235 10.967 1.68 14.206 3.645l.65 15.158c-1.288-.909-2.477-1.714-3.544-2.519-1.809-3.901-7.678-6.808-11.547-6.642-5.009.214-6.862 2.316-6.754 4.821.156 3.636 4.923 5.374 10.437 7.486 7.243 2.846 15.496 6.54 15.927 16.639.487 11.391-9.302 17.151-21.017 17.652" fill-rule="nonzero" transform="matrix(4.166667 0 0 4.166667 683.6246526839 5.0121859786)"/><path d="m0-37.004-9.214-.255-.368 14.777 8.002.222c1.481.041 3.215-2.887 3.352-3.782 1.35-.093 2.21-.337 3.22-.499l-.407 16.81c-.425-.245-1.226-.641-3.221-1.601-.359-1.992-1.591-3.706-3.114-3.749l-8.083-.224-.36 14.89c-.235 8.406 5.341 8.414 6.653 8.746l-5.909-.225-19.854-.719c.65-.063 4.726.373 4.975-8.599l.952-34.352c.233-8.407-4.667-9.594-5.392-9.695l39.56-.076-.491 17.698c-1.305-.482-2.026-.686-3.357-1.174-.426-3.488-2.993-8.083-6.944-8.193" fill-rule="nonzero" transform="matrix(4.166667 0 0 4.166667 916.5234213158 194.7576178249)"/><path d="m0 56.799-2.854-.325-36.411-3.608c.652-.016 5.479.173 6.43-9.321l3.338-33.31c.854-8.529-4.11-10.083-4.826-10.235l36.23 2.828 3.227.222-2.262 18.396c-.845-.714-1.634-1.202-2.625-2.044-.4-3.856-2.198-8.644-6.067-9.032l-9.334-.935-1.513 14.682 8.449.846c1.495.15 2.771-1.104 3.517-3.212 2.42.195 2.84.239 3.236.286l-1.639 14.401s-1.443-.109-3.049-.204c-.14-1.961-1.242-3.18-2.807-3.337l-8.609-.862-1.331 14.369 10.299 1.032c4.233.424 7.883-3.687 10.397-7.806 1.186-.09 1.787-.14 3.547-.442z" fill-rule="nonzero" transform="matrix(4.166667 0 0 4.166667 1128.6188549501 11.9896865368)"/><path d="m0 54.479c-6.289-1.111-12.312-3.735-15.95-6.84l-.392-17.852 1.447-2.07c2.808 9.198 10.467 16.046 16.598 17.129 4.618.815 8.284-.425 8.818-3.45.858-4.857-6.368-8.104-12.502-12.882-4.683-3.701-8.849-8.46-7.585-15.625 1.956-11.067 12.162-14.929 23.309-12.96 5.414.957 9.727 4.686 12.467 7.305l-3.378 16.127c-.736-2.042-1.071-2.711-1.888-4.396-1.382-4.651-6.326-9.111-9.512-9.674-4.936-.872-7.199.781-7.635 3.249-.633 3.582 3.647 6.309 8.573 9.56 6.458 4.343 13.716 9.73 11.958 19.682-1.983 11.226-12.783 14.737-24.328 12.697" fill-rule="nonzero" transform="matrix(4.166667 0 0 4.166667 1229.4988630205 46.017189259)"/><path d="m0-36.974-3.2 17.725c-1.184-1.078-1.567-1.392-3.002-2.393m3.002 2.393c-1.257-1.218-1.567-1.392-3.002-2.393-.073-3.118-.982-8.511-4.605-9.449l-7.456-1.809-8.892 34.334c-2.271 8.767 1.295 10.267 1.823 10.487l-21.992-6.179c.88.145 4.144.479 6.313-7.897l8.895-34.342-8.974-2.41c-4.932-1.277-8.105 2.557-10.446 5.793l-.078-.021-3.277-1.117 8.862-14.643 46.029 11.921z" fill-rule="nonzero" transform="matrix(4.166667 0 0 4.166667 1583.1430579787 273.2976241081)"/><path d="m0-12.533h-6.338v4.215h5.942v3.169h-5.942v8.318h-3.678v-18.871h10.016z" fill-rule="nonzero" transform="matrix(4.166667 0 0 4.166667 498.5729712131 382.9705495486)"/><path d="m165.811 156.475h3.678v18.871h-3.678z" transform="matrix(-4.166667 0 0 4.166667 1217.9926121 -334.432841177)"/><path d="m0-18.871v15.702h5.828v3.169h-9.506v-18.871z" fill-rule="nonzero" transform="matrix(4.166667 0 0 4.166667 560.3629761563 396.175550605)"/><path d="m0-18.871h2.66l5.007 11.996 5.235-11.996h2.659l3.169 18.871h-3.735l-1.697-11.628-5.065 11.628h-1.245l-4.838-11.628-1.924 11.628h-3.734z" fill-rule="nonzero" transform="matrix(4.166667 0 0 4.166667 605.8788131309 396.175550605)"/><path d="m0-12.533h-6.338v4.215h5.942v3.169h-5.942v8.318h-3.678v-18.871h10.016z" fill-rule="nonzero" transform="matrix(4.166667 0 0 4.166667 739.5813238271 382.9705495486)"/><path d="m0-12.533h-6.79v4.215h6.507v3.169h-6.507v5.149h6.79v3.169h-10.469v-18.871h10.469z" fill-rule="nonzero" transform="matrix(4.166667 0 0 4.166667 796.4146617071 382.9705495486)"/><path d="m0-10.268c-1.103-1.471-2.406-1.613-3.085-1.613-1.979 0-2.603 1.245-2.603 2.207 0 .452.143.877.595 1.272.453.425 1.075.651 2.264 1.077 1.471.507 2.858 1.018 3.819 1.894.85.764 1.613 2.038 1.613 3.962 0 3.678-2.66 6.195-6.564 6.195-3.479 0-5.517-2.121-6.508-3.564l2.405-2.292c.905 1.84 2.632 2.519 3.961 2.519 1.67 0 2.915-1.019 2.915-2.603 0-.679-.227-1.217-.736-1.698-.708-.651-1.84-1.018-2.913-1.387-.991-.339-2.18-.792-3.142-1.641-.622-.538-1.499-1.584-1.499-3.508 0-2.773 1.866-5.546 6.054-5.546 1.189 0 3.424.227 5.348 2.207z" fill-rule="nonzero" transform="matrix(4.166667 0 0 4.166667 849.9471659897 378.2488825042)"/><path d="m0-12.533v15.702h-3.678v-15.702h-4.244v-3.169h12.166v3.169z" fill-rule="nonzero" transform="matrix(4.166667 0 0 4.166667 897.8209198196 382.9705495486)"/><path d="m265.024 156.475h3.678v18.871h-3.678z" transform="matrix(-4.166667 0 0 4.166667 2044.767678242 -334.432841177)"/><path d="m0-18.871 5.036 12.675 5.036-12.675h4.018l-7.979 18.871h-2.207l-7.922-18.871z" fill-rule="nonzero" transform="matrix(4.166667 0 0 4.166667 966.4430086427 396.175550605)"/><path d="m0 4.951-2.689-6.79-2.688 6.79zm1.074 2.999h-7.61l-1.67 3.961h-3.989l8.121-18.871h2.884l7.895 18.871h-3.961z" fill-rule="nonzero" transform="matrix(4.166667 0 0 4.166667 1069.1434335254 346.5455466346)"/><path d="m0-18.871v15.702h5.828v3.169h-9.506v-18.871z" fill-rule="nonzero" transform="matrix(4.166667 0 0 4.166667 1121.61760439 396.175550605)"/></g><path d="m0-57.208 20.728-4.753c-.612.223-4.494 2.109-5.381 12.35l-4.019 45.056-10.956 2.512-15.619-25.785-3.217 30.105-10.798 2.476-23.891-39.07c-5.152-8.359-9.311-8.401-10.134-8.378l24.746-5.675c-.454.188-2.771 1.3-1.867 5.24.289 1.261.905 2.862 2.084 4.748l12.392 20.387 3-23.086-.895-1.372c-4.494-6.934-6.875-7.549-7.305-7.616l21.516-4.934c-.454.187-3.225 1.486-2.25 5.742.271 1.183.93 2.608 1.995 4.355l12.292 20.326 2.131-23.634c.178-2.115.053-3.745-.236-5.007-.904-3.94-3.667-4.053-4.316-3.987" fill="#de2526" fill-rule="nonzero" transform="matrix(4.166667 0 0 4.166667 263.6958690896 289.7684587591)"/><path d="m0 56.202c-6.382.273-12.829-.989-17.054-3.237l-.729-17.046c4.729 8.377 11.144 10.774 17.366 10.507 4.685-.2 7.998-2.203 7.867-5.273-.211-4.928-7.968-6.539-14.99-9.881-5.372-2.603-10.47-6.351-10.781-13.621-.48-11.23 8.653-17.205 19.963-17.689 5.494-.235 10.811 1.076 14.051 3.041l.616 14.381c-2.868-4.572-9.408-8.015-14.902-7.78-5.009.214-6.862 2.316-6.754 4.821.156 3.636 4.923 5.374 10.437 7.486 7.243 2.846 15.496 6.54 15.927 16.639.487 11.391-9.302 17.151-21.017 17.652" fill="#de2526" fill-rule="nonzero" transform="matrix(4.166667 0 0 4.166667 669.6446515655 .2721855994)"/><path d="m0-34.95-9.214-.255-.368 13.256 8.002.222c5.738.159 6.612-2.163 6.707-2.645l-.408 14.71c-.072-.325-.892-2.855-6.469-3.01l-8.083-.224-.36 13.013c-.235 8.407 3.212 9.553 4.099 9.659l-23.36-.648c.65-.063 4.877-.835 5.126-9.807l.952-34.353c.233-8.406-4.667-9.593-5.392-9.694l39.525 1.096-.458 16.489c-1.12-3.348-3.186-7.612-10.299-7.809" fill="#de2526" fill-rule="nonzero" transform="matrix(4.166667 0 0 4.166667 902.5434201974 187.7984506015)"/><path d="m0 57.616-39.264-3.933c.651-.016 4.94-.643 5.891-10.137l3.337-33.31c.854-8.529-4.109-10.083-4.825-10.236l39.585 3.966-1.66 16.575c-.828-3.903-2.614-7.982-9.614-8.684l-9.334-.935-1.321 13.195 8.449.847c5.55.556 6.662-1.609 6.872-2.075l-1.452 14.483s-.128-2.776-6.163-3.381l-8.609-.862-1.33 13.276 10.299 1.031c6.678.67 9.881-1.285 13.751-6.668z" fill="#de2526" fill-rule="nonzero" transform="matrix(4.166667 0 0 4.166667 1116.8817706778 7.2471861574)"/><path d="m0 48.773-3.132.393-36.331 4.33c.632-.155 5.387-1.012 4.268-10.488l-3.926-33.245c-1.006-8.512-6.188-8.959-6.92-8.954l35.988-5.053 3.198-.479 1.76 18.451c-.98-.515-1.856-.822-3.005-1.429-1.222-3.68-4.011-7.967-7.872-7.511l-9.316 1.1 1.69 14.662 8.432-.996c1.492-.176 2.467-1.676 2.741-3.895 2.406-.332 2.825-.38 3.222-.419l1.506 14.416s-1.433.205-3.021.458c-.56-1.884-1.899-2.837-3.462-2.652l-8.592 1.015 1.8 14.317 10.279-1.214c4.225-.498 6.903-5.3 8.468-9.864 1.139-.344 1.716-.523 3.369-1.197z" fill="#1e1d1d" fill-rule="nonzero" transform="matrix(4.166667 0 0 4.166667 581.7792278696 31.3801047547)"/><path d="m0 48.778-39.189 4.628c.633-.155 4.686-1.693 3.567-11.169l-3.926-33.245c-1.006-8.512-6.188-8.959-6.92-8.954l39.509-4.666 1.953 16.543c-1.65-3.633-4.273-7.231-11.259-6.406l-9.317 1.1 1.556 13.17 8.433-.996c5.54-.654 6.159-3.007 6.262-3.508l1.707 14.455s-.724-2.683-6.747-1.972l-8.592 1.015 1.564 13.25 10.279-1.214c6.666-.787 9.372-3.387 11.99-9.477z" fill="#de2526" fill-rule="nonzero" transform="matrix(4.166667 0 0 4.166667 568.8858935048 32.9801048827)"/><path d="m0 54.479c-6.289-1.111-12.312-3.735-15.95-6.84l2.968-16.799c2.808 9.198 8.554 12.923 14.685 14.006 4.618.815 8.284-.425 8.818-3.45.858-4.857-6.368-8.104-12.502-12.882-4.683-3.701-8.849-8.46-7.585-15.625 1.956-11.067 12.162-14.929 23.309-12.96 5.414.957 10.321 3.383 13.061 6.002l-2.505 14.172c-1.81-5.083-7.453-9.856-12.867-10.812-4.936-.872-7.199.781-7.635 3.249-.633 3.583 3.647 6.309 8.573 9.56 6.458 4.343 13.716 9.73 11.958 19.682-1.983 11.226-12.783 14.737-24.328 12.697" fill="#de2526" fill-rule="nonzero" transform="matrix(4.166667 0 0 4.166667 1215.5188619021 41.2771888798)"/><path d="m0-4.212c-.554-3.986-1.361-8.288-8.172-10.051l-7.358-1.907-8.779 33.896c-2.271 8.767 1.305 10.445 1.832 10.665l-22.387-5.799c.88.145 4.531-.079 6.7-8.455l8.778-33.895-9.236-2.392c-4.933-1.278-7.726 2.092-10.067 5.328l-.078-.021 5.585-15.76 46.028 11.921z" fill="#de2526" fill-rule="nonzero" transform="matrix(4.166667 0 0 4.166667 1557.3030559115 200.6747016316)"/></svg>

<?xml version="1.0" encoding="UTF-8" standalone="no"?>
<!DOCTYPE svg PUBLIC "-//W3C//DTD SVG 1.1//EN" "http://www.w3.org/Graphics/SVG/1.1/DTD/svg11.dtd">
<svg width="100%" height="100%" viewBox="0 0 1584 398" version="1.1" xmlns="http://www.w3.org/2000/svg" xmlns:xlink="http://www.w3.org/1999/xlink" xml:space="preserve" xmlns:serif="http://www.serif.com/" style="fill-rule:evenodd;clip-rule:evenodd;stroke-linejoin:round;stroke-miterlimit:2;">
    <g transform="matrix(1,0,0,1,-179.090833,-6694.72085)">
        <g transform="matrix(4.166667,0,0,4.166667,0,0)">
            <g id="Logo-big" serif:id="Logo big">
                <g transform="matrix(1,0,0,1,109.6241,1674.2518)">
                    <path d="M0,-54.045L17.372,-59.937L21.317,-60.823C20.705,-60.6 16.234,-56.689 15.347,-46.448L11.328,-3.338L7.973,-2.53L0.372,-0.826L-15.247,-24.665L-18.611,3.197L-21.82,4.302L-32.617,6.778L-53.153,-31.154C-58.305,-39.513 -62.464,-39.555 -63.288,-39.532L-54.328,-43.493L-41.896,-46.344L-38.681,-47.154C-39.135,-46.967 -41.312,-43.907 -40.408,-39.967C-40.119,-38.706 -39.503,-37.105 -38.324,-35.219L-25.932,-14.832L-22.932,-37.918L-23.827,-39.29C-28.321,-46.224 -30.702,-46.839 -31.132,-46.906L-12.971,-52.978L-9.272,-53.941C-9.726,-53.753 -12.841,-50.354 -11.866,-46.098C-11.595,-44.915 -10.936,-43.49 -9.871,-41.743L2.421,-21.417L4.552,-45.051C4.73,-47.166 4.605,-48.796 4.316,-50.058C3.412,-53.998 0.649,-54.111 0,-54.045" style="fill:rgb(30,29,29);fill-rule:nonzero;"/>
                </g>
                <g transform="matrix(1,0,0,1,207.0517,1607.9358)">
                    <path d="M0,56.202C-6.382,56.475 -12.829,55.213 -17.054,52.965L-21.138,34.781L-19.87,32.45C-15.142,40.827 -6.639,46.693 -0.417,46.426C4.268,46.226 7.581,44.223 7.45,41.153C7.239,36.225 -0.518,34.614 -7.54,31.272C-12.912,28.669 -18.01,24.921 -18.321,17.651C-18.801,6.421 -9.668,0.446 1.642,-0.038C7.136,-0.273 12.609,1.642 15.848,3.607L16.498,18.765C15.21,17.856 14.021,17.051 12.954,16.246C11.145,12.345 5.276,9.438 1.407,9.604C-3.602,9.818 -5.455,11.92 -5.347,14.425C-5.191,18.061 -0.424,19.799 5.09,21.911C12.333,24.757 20.586,28.451 21.017,38.55C21.504,49.941 11.715,55.701 0,56.202" style="fill:rgb(30,29,29);fill-rule:nonzero;"/>
                </g>
                <g transform="matrix(1,0,0,1,262.9474,1653.4747)">
                    <path d="M0,-37.004L-9.214,-37.259L-9.582,-22.482L-1.58,-22.26C-0.099,-22.219 1.635,-25.147 1.772,-26.042C3.122,-26.135 3.982,-26.379 4.992,-26.541L4.585,-9.731C4.16,-9.976 3.359,-10.372 1.364,-11.332C1.005,-13.324 -0.227,-15.038 -1.75,-15.081L-9.833,-15.305L-10.193,-0.415C-10.428,7.991 -4.852,7.999 -3.54,8.331L-9.449,8.106L-29.303,7.387C-28.653,7.324 -24.577,7.76 -24.328,-1.212L-23.376,-35.564C-23.143,-43.971 -28.043,-45.158 -28.768,-45.259L10.792,-45.335L10.301,-27.637C8.996,-28.119 8.275,-28.323 6.944,-28.811C6.518,-32.299 3.951,-36.894 0,-37.004" style="fill:rgb(30,29,29);fill-rule:nonzero;"/>
                </g>
                <g transform="matrix(1,0,0,1,313.8503,1609.6104)">
                    <path d="M0,56.799L-2.854,56.474L-39.265,52.866C-38.613,52.85 -33.786,53.039 -32.835,43.545L-29.497,10.235C-28.643,1.706 -33.607,0.152 -34.323,0L1.907,2.828L5.134,3.05L2.872,21.446C2.027,20.732 1.238,20.244 0.247,19.402C-0.153,15.546 -1.951,10.758 -5.82,10.37L-15.154,9.435L-16.667,24.117L-8.218,24.963C-6.723,25.113 -5.447,23.859 -4.701,21.751C-2.281,21.946 -1.861,21.99 -1.465,22.037L-3.104,36.438C-3.104,36.438 -4.547,36.329 -6.153,36.234C-6.293,34.273 -7.395,33.054 -8.96,32.897L-17.569,32.035L-18.9,46.404L-8.601,47.436C-4.368,47.86 -0.718,43.749 1.796,39.63C2.982,39.54 3.583,39.49 5.343,39.188L0,56.799Z" style="fill:rgb(30,29,29);fill-rule:nonzero;"/>
                </g>
                <g transform="matrix(1,0,0,1,338.0615,1617.777)">
                    <path d="M0,54.479C-6.289,53.368 -12.312,50.744 -15.95,47.639L-16.342,29.787L-14.895,27.717C-12.087,36.915 -4.428,43.763 1.703,44.846C6.321,45.661 9.987,44.421 10.521,41.396C11.379,36.539 4.153,33.292 -1.981,28.514C-6.664,24.813 -10.83,20.054 -9.566,12.889C-7.61,1.822 2.596,-2.04 13.743,-0.071C19.157,0.886 23.47,4.615 26.21,7.234L22.832,23.361C22.096,21.319 21.761,20.65 20.944,18.965C19.562,14.314 14.618,9.854 11.432,9.291C6.496,8.419 4.233,10.072 3.797,12.54C3.164,16.122 7.444,18.849 12.37,22.1C18.828,26.443 26.086,31.83 24.328,41.782C22.345,53.008 11.545,56.519 0,54.479" style="fill:rgb(30,29,29);fill-rule:nonzero;"/>
                </g>
                <g transform="matrix(1,0,0,1,422.9361,1672.3243)">
                    <path d="M0,-36.974L-3.2,-19.249C-4.384,-20.327 -4.767,-20.641 -6.202,-21.642M-3.2,-19.249C-4.457,-20.467 -4.767,-20.641 -6.202,-21.642C-6.275,-24.76 -7.184,-30.153 -10.807,-31.091L-18.263,-32.9L-27.155,1.434C-29.426,10.201 -25.86,11.701 -25.332,11.921L-47.324,5.742C-46.444,5.887 -43.18,6.221 -41.011,-2.155L-32.116,-36.497L-41.09,-38.907C-46.022,-40.184 -49.195,-36.35 -51.536,-33.114L-51.614,-33.135L-54.891,-34.252L-46.029,-48.895L0,-36.974L-3.2,-19.249Z" style="fill:rgb(30,29,29);fill-rule:nonzero;"/>
                </g>
                <g transform="matrix(1,0,0,1,162.6393,1698.6458)">
                    <path d="M0,-12.533L-6.338,-12.533L-6.338,-8.318L-0.396,-8.318L-0.396,-5.149L-6.338,-5.149L-6.338,3.169L-10.016,3.169L-10.016,-15.702L0,-15.702L0,-12.533Z" style="fill:rgb(30,29,29);fill-rule:nonzero;"/>
                </g>
                <g transform="matrix(-1,0,0,1,335.3,1526.469)">
                    <rect x="165.811" y="156.475" width="3.678" height="18.871" style="fill:rgb(30,29,29);"/>
                </g>
                <g transform="matrix(1,0,0,1,177.4689,1701.815)">
                    <path d="M0,-18.871L0,-3.169L5.828,-3.169L5.828,0L-3.678,0L-3.678,-18.871L0,-18.871Z" style="fill:rgb(30,29,29);fill-rule:nonzero;"/>
                </g>
                <g transform="matrix(1,0,0,1,188.3927,1701.815)">
                    <path d="M0,-18.871L2.66,-18.871L7.667,-6.875L12.902,-18.871L15.561,-18.871L18.73,0L14.995,0L13.298,-11.628L8.233,0L6.988,0L2.15,-11.628L0.226,0L-3.508,0L0,-18.871Z" style="fill:rgb(30,29,29);fill-rule:nonzero;"/>
                </g>
                <g transform="matrix(1,0,0,1,220.4813,1698.6458)">
                    <path d="M0,-12.533L-6.338,-12.533L-6.338,-8.318L-0.396,-8.318L-0.396,-5.149L-6.338,-5.149L-6.338,3.169L-10.016,3.169L-10.016,-15.702L0,-15.702L0,-12.533Z" style="fill:rgb(30,29,29);fill-rule:nonzero;"/>
                </g>
                <g transform="matrix(1,0,0,1,234.1213,1698.6458)">
                    <path d="M0,-12.533L-6.79,-12.533L-6.79,-8.318L-0.283,-8.318L-0.283,-5.149L-6.79,-5.149L-6.79,-0L0,-0L0,3.169L-10.469,3.169L-10.469,-15.702L0,-15.702L0,-12.533Z" style="fill:rgb(30,29,29);fill-rule:nonzero;"/>
                </g>
                <g transform="matrix(1,0,0,1,246.9691,1697.5126)">
                    <path d="M0,-10.268C-1.103,-11.739 -2.406,-11.881 -3.085,-11.881C-5.064,-11.881 -5.688,-10.636 -5.688,-9.674C-5.688,-9.222 -5.545,-8.797 -5.093,-8.402C-4.64,-7.977 -4.018,-7.751 -2.829,-7.325C-1.358,-6.818 0.029,-6.307 0.99,-5.431C1.84,-4.667 2.603,-3.393 2.603,-1.469C2.603,2.209 -0.057,4.726 -3.961,4.726C-7.44,4.726 -9.478,2.605 -10.469,1.162L-8.064,-1.13C-7.159,0.71 -5.432,1.389 -4.103,1.389C-2.433,1.389 -1.188,0.37 -1.188,-1.214C-1.188,-1.893 -1.415,-2.431 -1.924,-2.912C-2.632,-3.563 -3.764,-3.93 -4.837,-4.299C-5.828,-4.638 -7.017,-5.091 -7.979,-5.94C-8.601,-6.478 -9.478,-7.524 -9.478,-9.448C-9.478,-12.221 -7.612,-14.994 -3.424,-14.994C-2.235,-14.994 0,-14.767 1.924,-12.787L0,-10.268Z" style="fill:rgb(30,29,29);fill-rule:nonzero;"/>
                </g>
                <g transform="matrix(1,0,0,1,258.4588,1698.6458)">
                    <path d="M0,-12.533L0,3.169L-3.678,3.169L-3.678,-12.533L-7.922,-12.533L-7.922,-15.702L4.244,-15.702L4.244,-12.533L0,-12.533Z" style="fill:rgb(30,29,29);fill-rule:nonzero;"/>
                </g>
                <g transform="matrix(-1,0,0,1,533.726,1526.469)">
                    <rect x="265.024" y="156.475" width="3.678" height="18.871" style="fill:rgb(30,29,29);"/>
                </g>
                <g transform="matrix(1,0,0,1,274.9281,1701.815)">
                    <path d="M0,-18.871L5.036,-6.196L10.072,-18.871L14.09,-18.871L6.111,0L3.904,0L-4.018,-18.871L0,-18.871Z" style="fill:rgb(30,29,29);fill-rule:nonzero;"/>
                </g>
                <g transform="matrix(1,0,0,1,299.5762,1689.9038)">
                    <path d="M0,4.951L-2.689,-1.839L-5.377,4.951L0,4.951ZM1.074,7.95L-6.536,7.95L-8.206,11.911L-12.195,11.911L-4.074,-6.96L-1.19,-6.96L6.705,11.911L2.744,11.911L1.074,7.95Z" style="fill:rgb(30,29,29);fill-rule:nonzero;"/>
                </g>
                <g transform="matrix(1,0,0,1,312.17,1701.815)">
                    <path d="M0,-18.871L0,-3.169L5.828,-3.169L5.828,0L-3.678,0L-3.678,-18.871L0,-18.871Z" style="fill:rgb(30,29,29);fill-rule:nonzero;"/>
                </g>
                <g transform="matrix(1,0,0,1,106.2688,1676.2773)">
                    <path d="M0,-57.208L20.728,-61.961C20.116,-61.738 16.234,-59.852 15.347,-49.611L11.328,-4.555L0.372,-2.043L-15.247,-27.828L-18.464,2.277L-29.262,4.753L-53.153,-34.317C-58.305,-42.676 -62.464,-42.718 -63.287,-42.695L-38.541,-48.37C-38.995,-48.182 -41.312,-47.07 -40.408,-43.13C-40.119,-41.869 -39.503,-40.268 -38.324,-38.382L-25.932,-17.995L-22.932,-41.081L-23.827,-42.453C-28.321,-49.387 -30.702,-50.002 -31.132,-50.069L-9.616,-55.003C-10.07,-54.816 -12.841,-53.517 -11.866,-49.261C-11.595,-48.078 -10.936,-46.653 -9.871,-44.906L2.421,-24.58L4.552,-48.214C4.73,-50.329 4.605,-51.959 4.316,-53.221C3.412,-57.161 0.649,-57.274 0,-57.208" style="fill:rgb(222,37,38);fill-rule:nonzero;"/>
                </g>
                <g transform="matrix(1,0,0,1,203.6965,1606.7982)">
                    <path d="M0,56.202C-6.382,56.475 -12.829,55.213 -17.054,52.965L-17.783,35.919C-13.054,44.296 -6.639,46.693 -0.417,46.426C4.268,46.226 7.581,44.223 7.45,41.153C7.239,36.225 -0.518,34.614 -7.54,31.272C-12.912,28.669 -18.01,24.921 -18.321,17.651C-18.801,6.421 -9.668,0.446 1.642,-0.038C7.136,-0.273 12.453,1.038 15.693,3.003L16.309,17.384C13.441,12.812 6.901,9.369 1.407,9.604C-3.602,9.818 -5.455,11.92 -5.347,14.425C-5.191,18.061 -0.424,19.799 5.09,21.911C12.333,24.757 20.586,28.451 21.017,38.55C21.504,49.941 11.715,55.701 0,56.202" style="fill:rgb(222,37,38);fill-rule:nonzero;"/>
                </g>
                <g transform="matrix(1,0,0,1,259.5922,1651.8045)">
                    <path d="M0,-34.95L-9.214,-35.205L-9.582,-21.949L-1.58,-21.727C4.158,-21.568 5.032,-23.89 5.127,-24.372L4.719,-9.662C4.647,-9.987 3.827,-12.517 -1.75,-12.672L-9.833,-12.896L-10.193,0.117C-10.428,8.524 -6.981,9.67 -6.094,9.776L-29.454,9.128C-28.804,9.065 -24.577,8.293 -24.328,-0.679L-23.376,-35.032C-23.143,-43.438 -28.043,-44.625 -28.768,-44.726L10.757,-43.63L10.299,-27.141C9.179,-30.489 7.113,-34.753 0,-34.95" style="fill:rgb(222,37,38);fill-rule:nonzero;"/>
                </g>
                <g transform="matrix(1,0,0,1,311.0334,1608.4722)">
                    <path d="M0,57.616L-39.264,53.683C-38.613,53.667 -34.324,53.04 -33.373,43.546L-30.036,10.236C-29.182,1.707 -34.145,0.153 -34.861,0L4.724,3.966L3.064,20.541C2.236,16.638 0.45,12.559 -6.55,11.857L-15.884,10.922L-17.205,24.117L-8.756,24.964C-3.206,25.52 -2.094,23.355 -1.884,22.889L-3.336,37.372C-3.336,37.372 -3.464,34.596 -9.499,33.991L-18.108,33.129L-19.438,46.405L-9.139,47.436C-2.461,48.106 0.742,46.151 4.612,40.768L0,57.616Z" style="fill:rgb(222,37,38);fill-rule:nonzero;"/>
                </g>
                <g transform="matrix(1,0,0,1,182.6088,1614.2641)">
                    <path d="M0,48.773L-3.132,49.166L-39.463,53.496C-38.831,53.341 -34.076,52.484 -35.195,43.008L-39.121,9.763C-40.127,1.251 -45.309,0.804 -46.041,0.809L-10.053,-4.244L-6.855,-4.723L-5.095,13.728C-6.075,13.213 -6.951,12.906 -8.1,12.299C-9.322,8.619 -12.111,4.332 -15.972,4.788L-25.288,5.888L-23.598,20.55L-15.166,19.554C-13.674,19.378 -12.699,17.878 -12.425,15.659C-10.019,15.327 -9.6,15.279 -9.203,15.24L-7.697,29.656C-7.697,29.656 -9.13,29.861 -10.718,30.114C-11.278,28.23 -12.617,27.277 -14.18,27.462L-22.772,28.477L-20.972,42.794L-10.693,41.58C-6.468,41.082 -3.79,36.28 -2.225,31.716C-1.086,31.372 -0.509,31.193 1.144,30.519L0,48.773Z" style="fill:rgb(30,29,29);fill-rule:nonzero;"/>
                </g>
                <g transform="matrix(1,0,0,1,179.5144,1614.6481)">
                    <path d="M0,48.778L-39.189,53.406C-38.556,53.251 -34.503,51.713 -35.622,42.237L-39.548,8.992C-40.554,0.48 -45.736,0.033 -46.468,0.038L-6.959,-4.628L-5.006,11.915C-6.656,8.282 -9.279,4.684 -16.265,5.509L-25.582,6.609L-24.026,19.779L-15.593,18.783C-10.053,18.129 -9.434,15.776 -9.331,15.275L-7.624,29.73C-7.624,29.73 -8.348,27.047 -14.371,27.758L-22.963,28.773L-21.399,42.023L-11.12,40.809C-4.454,40.022 -1.748,37.422 0.87,31.332L0,48.778Z" style="fill:rgb(222,37,38);fill-rule:nonzero;"/>
                </g>
                <g transform="matrix(1,0,0,1,334.7063,1616.6394)">
                    <path d="M0,54.479C-6.289,53.368 -12.312,50.744 -15.95,47.639L-12.982,30.84C-10.174,40.038 -4.428,43.763 1.703,44.846C6.321,45.661 9.987,44.421 10.521,41.396C11.379,36.539 4.153,33.292 -1.981,28.514C-6.664,24.813 -10.83,20.054 -9.566,12.889C-7.61,1.822 2.596,-2.04 13.743,-0.071C19.157,0.886 24.064,3.312 26.804,5.931L24.299,20.103C22.489,15.02 16.846,10.247 11.432,9.291C6.496,8.419 4.233,10.072 3.797,12.54C3.164,16.123 7.444,18.849 12.37,22.1C18.828,26.443 26.086,31.83 24.328,41.782C22.345,53.008 11.545,56.519 0,54.479" style="fill:rgb(222,37,38);fill-rule:nonzero;"/>
                </g>
                <g transform="matrix(1,0,0,1,416.7345,1654.8948)">
                    <path d="M0,-4.212C-0.554,-8.198 -1.361,-12.5 -8.172,-14.263L-15.53,-16.17L-24.309,17.726C-26.58,26.493 -23.004,28.171 -22.477,28.391L-44.864,22.592C-43.984,22.737 -40.333,22.513 -38.164,14.137L-29.386,-19.758L-38.622,-22.15C-43.555,-23.428 -46.348,-20.058 -48.689,-16.822L-48.767,-16.843L-43.182,-32.603L2.846,-20.682L0,-4.212Z" style="fill:rgb(222,37,38);fill-rule:nonzero;"/>
                </g>
            </g>
        </g>
    </g>
</svg>
